X: 3
T: ha-Noded  [A]
T: the Wanderer
M: 2/4
L: 1/8
K: A
E/ | "A"EA GA | B2 c>c | cA GA | "E7"B7/2 ::\
E/ | "E7"Be de | "D"fe "E7"e>e | "D"dc BA | "A"EA "E7"B> :|

%%sep 1 0 500
%%sep 1 0 500


